docs/public/badges/minimal/compact-minimal_vector.svg

<svg width="40" height="40" viewBox="0 0 40 40" fill="none" xmlns="http://www.w3.org/2000/svg">
<rect width="40" height="40" rx="8" fill="black"/>
<rect x="1.05" y="1.05" width="37.9" height="37.9" rx="6.95" stroke="url(#paint0_linear_1_68)" stroke-opacity="0.88" stroke-width="2.1"/>
<g filter="url(#filter0_d_1_68)">
<path d="M23.3412 31.2875C22.9737 31.1583 22.6332 31.0022 22.3198 30.8193C22.0063 30.6363 21.6982 30.4264 21.3955 30.1896L20.1633 30.5771C19.7741 30.7062 19.3849 30.7008 18.9958 30.5609C18.6067 30.421 18.304 30.168 18.0878 29.802L17.7309 29.1885C17.5149 28.8225 17.4392 28.4296 17.5039 28.0098C17.5687 27.59 17.7632 27.2402 18.0876 26.9604L19.0605 26.1208C19.0173 25.7333 18.9958 25.3458 18.9958 24.9583C18.9958 24.5707 19.0173 24.1832 19.0605 23.7957L18.0876 22.9239C17.7634 22.644 17.5688 22.2995 17.5039 21.8905C17.4392 21.4815 17.5149 21.094 17.7309 20.728L18.0878 20.1145C18.3039 19.7485 18.6065 19.4955 18.9958 19.3556C19.3849 19.2157 19.7741 19.2103 20.1633 19.3394L21.3955 19.727C21.6982 19.4901 22.0063 19.2802 22.3198 19.0973C22.6332 18.9143 22.9737 18.7582 23.3412 18.629L23.6329 17.3051C23.7195 16.896 23.9195 16.5623 24.2329 16.304C24.5463 16.0457 24.9192 15.9165 25.3516 15.9165H26.1299C26.5623 15.9165 26.9352 16.0457 27.2487 16.304C27.5621 16.5623 27.7621 16.896 27.8486 17.3051L28.1403 18.629C28.5078 18.7582 28.8483 18.9143 29.1618 19.0973C29.4752 19.2802 29.7833 19.4901 30.086 19.727L31.3183 19.3394C31.7075 19.2103 32.0966 19.2157 32.4857 19.3556C32.8749 19.4955 33.1775 19.7485 33.3937 20.1145L33.7506 20.728C33.9667 21.094 34.0423 21.4869 33.9776 21.9067C33.9129 22.3265 33.7183 22.6763 33.3939 22.9562L32.4211 23.7957C32.4642 24.1832 32.4858 24.5707 32.4858 24.9583C32.4858 25.3458 32.4642 25.7333 32.4211 26.1208L33.3939 26.9926C33.7182 27.2725 33.9127 27.617 33.9776 28.026C34.0424 28.435 33.9667 28.8225 33.7506 29.1885L33.3937 29.802C33.1777 30.168 32.875 30.421 32.4857 30.5609C32.0966 30.7008 31.7075 30.7062 31.3183 30.5771L30.086 30.1896C29.7834 30.4264 29.4753 30.6363 29.1618 30.8193C28.8484 31.0022 28.5079 31.1583 28.1403 31.2875L27.8486 32.6115C27.762 33.0205 27.562 33.3542 27.2487 33.6125C26.9352 33.8708 26.5623 34 26.1299 34H25.3516C24.9193 34 24.5463 33.8708 24.2329 33.6125C23.9194 33.3542 23.7195 33.0205 23.6329 32.6115L23.3412 31.2875ZM25.7409 28.8333C26.8218 28.8333 27.7407 28.4566 28.4973 27.7031C29.254 26.9496 29.6323 26.0347 29.6323 24.9583C29.6323 23.8819 29.254 22.9669 28.4973 22.2134C27.7407 21.46 26.8218 21.0832 25.7409 21.0832C24.66 21.0832 23.7412 21.46 22.9845 22.2134C22.2278 22.9669 21.8495 23.8819 21.8495 24.9583C21.8495 26.0347 22.2278 26.9496 22.9845 27.7031C23.7412 28.4566 24.66 28.8333 25.7409 28.8333Z" fill="#F9F9F9"/>
<path d="M9.86126 26.1009C9.62619 26.0034 9.40586 25.9011 9.2003 25.7938C8.99454 25.6865 8.78402 25.5549 8.56874 25.3989L7.71687 25.6622C7.46225 25.7402 7.21256 25.7304 6.96781 25.6329C6.72295 25.5354 6.532 25.3794 6.39495 25.1649L6.16002 24.7554C6.02294 24.5214 5.97395 24.2678 6.01303 23.9948C6.05212 23.7218 6.17943 23.4975 6.39495 23.322L7.04121 22.7662C7.00211 22.5127 6.98256 22.2592 6.98256 22.0057C6.98256 21.7522 7.00211 21.4986 7.04121 21.2451L6.39495 20.6893C6.17942 20.5138 6.05211 20.2944 6.01303 20.0312C5.97393 19.7679 6.02293 19.5193 6.16002 19.2852L6.42427 18.8465C6.56135 18.6319 6.74738 18.4759 6.98237 18.3784C7.21745 18.2809 7.46226 18.2712 7.71679 18.3492L8.56866 18.6125C8.7842 18.4565 8.99472 18.3248 9.20022 18.2176C9.40599 18.1103 9.62631 18.0079 9.86118 17.9104L10.0375 17.0621C10.0961 16.7891 10.2283 16.5697 10.4341 16.4039C10.6395 16.2382 10.8794 16.1553 11.1537 16.1553H11.6238C11.8979 16.1553 12.1378 16.2431 12.3434 16.4186C12.5492 16.5941 12.6814 16.8183 12.74 17.0914L12.9163 17.9104C13.1514 18.0079 13.3717 18.1103 13.5773 18.2176C13.7828 18.3248 13.9933 18.4565 14.2089 18.6125L15.0607 18.3492C15.3153 18.2712 15.565 18.2809 15.8098 18.3784C16.0547 18.4759 16.2456 18.632 16.3826 18.8465L16.6176 19.256C16.7546 19.49 16.8036 19.7435 16.7646 20.0165C16.7255 20.2896 16.5982 20.5138 16.3826 20.6893L15.7364 21.2451C15.7755 21.4986 15.795 21.7522 15.795 22.0057C15.795 22.2592 15.7755 22.5127 15.7364 22.7662L16.3826 23.322C16.5982 23.4975 16.7255 23.7169 16.7646 23.9802C16.8037 24.2435 16.7547 24.4921 16.6176 24.7261L16.3533 25.1649C16.2162 25.3794 16.0302 25.5354 15.7952 25.6329C15.5601 25.7304 15.3153 25.7402 15.0608 25.6622L14.2089 25.3989C13.9934 25.5549 13.7828 25.6865 13.5773 25.7938C13.3716 25.9011 13.1513 26.0034 12.9164 26.1009L12.7401 26.9493C12.6814 27.2223 12.5492 27.4417 12.3435 27.6074C12.138 27.7732 11.8981 27.8561 11.6238 27.8561H11.1538C10.8796 27.8561 10.6397 27.7683 10.4341 27.5928C10.2283 27.4173 10.0961 27.193 10.0375 26.92L9.86126 26.1009ZM11.3888 24.3458C12.0351 24.3458 12.5883 24.1167 13.0485 23.6584C13.5087 23.2001 13.7389 22.6492 13.7389 22.0057C13.7389 21.3621 13.5087 20.8112 13.0485 20.3529C12.5883 19.8946 12.0351 19.6655 11.3888 19.6655C10.7425 19.6655 10.1893 19.8946 9.72909 20.3529C9.26886 20.8112 9.03874 21.3621 9.03874 22.0057C9.03874 22.6492 9.26886 23.2001 9.72909 23.6584C10.1893 24.1167 10.7425 24.3458 11.3888 24.3458Z" fill="#F9F9F9"/>
<path d="M18.2869 6.16009C18.0273 6.22936 17.8225 6.37304 17.6725 6.59118C17.5224 6.80936 17.4544 7.05514 17.4685 7.32848L17.5102 8.14865C17.3124 8.30037 17.1299 8.45291 16.9626 8.60641C16.7954 8.75988 16.6295 8.93772 16.4651 9.13991L15.5915 9.10588C15.3305 9.09635 15.0965 9.16869 14.8895 9.32285C14.6825 9.47704 14.5415 9.67305 14.4664 9.9108L14.3483 10.3579C14.2781 10.6141 14.2963 10.8666 14.4029 11.1152C14.5095 11.3638 14.6871 11.5441 14.9359 11.6558L15.6895 12.0188C15.7171 12.2687 15.7632 12.5137 15.8278 12.7538C15.8924 12.9938 15.9755 13.2289 16.0771 13.4591L15.6067 14.1487C15.4473 14.3693 15.3827 14.6093 15.4128 14.8684C15.4429 15.1276 15.5526 15.3507 15.7421 15.5376L16.1041 15.8863C16.2885 16.0548 16.5044 16.1556 16.7518 16.1885C16.9993 16.2214 17.2335 16.1688 17.4547 16.0306L18.1943 15.5661C18.4381 15.6593 18.671 15.7309 18.8929 15.7805C19.1151 15.8301 19.3498 15.8713 19.5971 15.9043L19.9801 16.6631C20.1052 16.9068 20.2864 17.0811 20.5234 17.1861C20.7602 17.2911 21.0084 17.309 21.2682 17.2397L21.7133 17.1209C21.9729 17.0517 22.1777 16.908 22.3277 16.6898C22.4778 16.4717 22.5458 16.2259 22.5318 15.9525L22.49 15.1324C22.6877 14.9807 22.8703 14.8281 23.0376 14.6746C23.2051 14.5211 23.3709 14.3432 23.535 14.141L24.4088 14.1751C24.6697 14.1847 24.9037 14.1124 25.1106 13.9582C25.3176 13.804 25.4586 13.608 25.5337 13.3703L25.6519 12.9231C25.7221 12.6669 25.7039 12.4145 25.5973 12.1658C25.4907 11.9172 25.313 11.737 25.0642 11.6252L24.3107 11.2622C24.2831 11.0123 24.237 10.7673 24.1724 10.5272C24.1078 10.2872 24.0247 10.0521 23.9231 9.8219L24.3934 9.13236C24.5528 8.91171 24.6175 8.67175 24.5874 8.41259C24.5573 8.15342 24.4476 7.93037 24.2581 7.74341L23.8961 7.39473C23.7117 7.22623 23.4957 7.12548 23.2484 7.09252C23.0009 7.05958 22.7667 7.1122 22.5455 7.25038L21.8059 7.71488C21.5621 7.62161 21.3292 7.55016 21.1073 7.50052C20.8851 7.45094 20.6504 7.40973 20.4031 7.37674L20.0201 6.61797C19.895 6.37426 19.7138 6.1999 19.4768 6.09492C19.24 5.98988 18.9918 5.97202 18.732 6.04133L18.2869 6.16009ZM19.4038 9.42458C20.0158 9.2613 20.598 9.33851 21.1506 9.65619C21.7032 9.97386 22.0614 10.4374 22.2254 11.0468C22.3894 11.6561 22.3118 12.2359 21.9928 12.7862C21.6738 13.3364 21.2083 13.6932 20.5964 13.8564C19.9844 14.0197 19.4022 13.9425 18.8496 13.6248C18.297 13.3072 17.9388 12.8436 17.7748 12.2343C17.6108 11.6249 17.6884 11.0451 18.0074 10.4949C18.3264 9.94464 18.7919 9.58786 19.4038 9.42458Z" fill="#F9F9F9"/>
</g>
<defs>
<filter id="filter0_d_1_68" x="2" y="2" width="36" height="36" filterUnits="userSpaceOnUse" color-interpolation-filters="sRGB">
<feFlood flood-opacity="0" result="BackgroundImageFix"/>
<feColorMatrix in="SourceAlpha" type="matrix" values="0 0 0 0 0 0 0 0 0 0 0 0 0 0 0 0 0 0 127 0" result="hardAlpha"/>
<feOffset/>
<feGaussianBlur stdDeviation="2"/>
<feComposite in2="hardAlpha" operator="out"/>
<feColorMatrix type="matrix" values="0 0 0 0 0 0 0 0 0 0 0 0 0 0 0 0 0 0 0.25 0"/>
<feBlend mode="normal" in2="BackgroundImageFix" result="effect1_dropShadow_1_68"/>
<feBlend mode="normal" in="SourceGraphic" in2="effect1_dropShadow_1_68" result="shape"/>
</filter>
<linearGradient id="paint0_linear_1_68" x1="0" y1="20" x2="40" y2="20" gradientUnits="userSpaceOnUse">
<stop stop-color="#62883F"/>
<stop offset="0.345" stop-color="#CD3935"/>
<stop offset="0.675" stop-color="#A85551"/>
<stop offset="1" stop-color="#BF873E"/>
</linearGradient>
</defs>
</svg>

<svg xmlns="http://www.w3.org/2000/svg" width="40" height="40" fill="none"><rect width="40" height="40" fill="#000" rx="8"/><rect width="37.9" height="37.9" x="1.05" y="1.05" stroke="url(#a)" stroke-opacity=".88" stroke-width="2.1" rx="6.95"/><g fill="#F9F9F9" filter="url(#b)"><path d="M23.34 31.29a5.9 5.9 0 0 1-1.94-1.1l-1.24.39a1.74 1.74 0 0 1-2.07-.78l-.36-.61a1.7 1.7 0 0 1-.23-1.18c.07-.42.26-.77.59-1.05l.97-.84a10.48 10.48 0 0 1 0-2.32l-.97-.88a1.7 1.7 0 0 1-.36-2.2l.36-.6a1.74 1.74 0 0 1 2.08-.78l1.23.39a5.9 5.9 0 0 1 1.95-1.1l.28-1.32a1.72 1.72 0 0 1 1.72-1.4h.78a1.7 1.7 0 0 1 1.72 1.4l.29 1.32a5.9 5.9 0 0 1 1.95 1.1l1.23-.4a1.74 1.74 0 0 1 2.07.78l.36.62c.22.36.3.76.23 1.18a1.7 1.7 0 0 1-.59 1.05l-.97.84a10.5 10.5 0 0 1 0 2.32l.97.87a1.7 1.7 0 0 1 .36 2.2l-.36.61a1.74 1.74 0 0 1-2.08.78l-1.22-.39c-.3.24-.61.45-.93.63a5.9 5.9 0 0 1-1.02.47l-.3 1.32a1.72 1.72 0 0 1-1.7 1.39h-.78a1.7 1.7 0 0 1-1.72-1.39l-.29-1.32Zm2.4-2.46c1.08 0 2-.37 2.76-1.13a3.73 3.73 0 0 0 1.13-2.74c0-1.08-.38-2-1.13-2.75a3.76 3.76 0 0 0-2.76-1.13c-1.08 0-2 .38-2.76 1.13a3.73 3.73 0 0 0-1.13 2.75c0 1.07.38 1.99 1.13 2.74a3.76 3.76 0 0 0 2.76 1.13ZM9.86 26.1a5.1 5.1 0 0 1-1.3-.7l-.84.26a1.18 1.18 0 0 1-1.32-.5l-.24-.4a1.14 1.14 0 0 1-.15-.77c.04-.27.17-.5.38-.67l.65-.55a4.98 4.98 0 0 1 0-1.52l-.65-.56a1.07 1.07 0 0 1-.23-1.4l.26-.44c.14-.22.33-.37.56-.47.24-.1.48-.1.74-.03l.85.26a5.13 5.13 0 0 1 1.3-.7l.17-.85a1.12 1.12 0 0 1 1.11-.9h.47c.28 0 .52.08.72.26.2.17.34.4.4.67l.18.82.66.3c.2.11.41.25.63.4l.85-.26a1.18 1.18 0 0 1 1.32.5l.24.4c.13.24.18.5.14.77a.96.96 0 0 1-.38.67l-.64.56a4.98 4.98 0 0 1 0 1.52l.64.55c.22.18.35.4.38.66.04.26 0 .51-.14.75l-.27.43a1.1 1.1 0 0 1-.55.47c-.24.1-.48.11-.74.03l-.85-.26a5.14 5.14 0 0 1-1.3.7l-.17.85a1.12 1.12 0 0 1-1.12.9h-.47c-.27 0-.51-.08-.72-.26-.2-.17-.33-.4-.4-.67l-.17-.82Zm1.53-1.75c.65 0 1.2-.23 1.66-.7.46-.45.69-1 .69-1.64 0-.65-.23-1.2-.7-1.66a2.27 2.27 0 0 0-1.65-.68c-.65 0-1.2.22-1.66.68-.46.46-.7 1.01-.7 1.66 0 .64.24 1.19.7 1.65.46.46 1.01.69 1.66.69Zm6.9-18.19c-.26.07-.47.21-.62.43-.15.22-.22.47-.2.74l.04.82a5.03 5.03 0 0 0-1.05 1l-.87-.04c-.26-.01-.5.06-.7.21-.2.16-.35.35-.42.6l-.12.44c-.07.25-.05.5.05.76.1.24.29.42.54.54l.75.36a4.9 4.9 0 0 0 .39 1.44l-.47.69a1 1 0 0 0-.2.72c.03.26.14.48.33.67l.36.35c.19.16.4.27.65.3.25.03.48-.02.7-.16l.74-.46a5.05 5.05 0 0 0 1.4.33l.39.76a1.1 1.1 0 0 0 1.29.58l.44-.12c.26-.07.47-.21.62-.43.15-.22.22-.46.2-.74l-.04-.82a4.97 4.97 0 0 0 1.05-1l.87.05a1.15 1.15 0 0 0 1.12-.8l.12-.46c.07-.25.05-.5-.05-.75s-.29-.43-.54-.54l-.75-.37a4.9 4.9 0 0 0-.39-1.44l.47-.69a1 1 0 0 0 .2-.72 1.1 1.1 0 0 0-.33-.67l-.36-.35a1.3 1.3 0 0 0-.65-.3c-.25-.03-.48.02-.7.16l-.74.46a5.04 5.04 0 0 0-1.4-.33l-.39-.76a1.1 1.1 0 0 0-1.29-.58l-.44.12Zm1.11 3.26c.62-.16 1.2-.08 1.75.24.55.31.91.78 1.08 1.39.16.6.08 1.19-.24 1.74s-.78.9-1.4 1.07c-.6.16-1.19.08-1.74-.24a2.21 2.21 0 0 1-1.08-1.39 2.2 2.2 0 0 1 .24-1.74c.32-.55.78-.9 1.4-1.07Z"/></g><defs><linearGradient id="a" x1="0" x2="40" y1="20" y2="20" gradientUnits="userSpaceOnUse"><stop stop-color="#62883F"/><stop offset=".34" stop-color="#CD3935"/><stop offset=".68" stop-color="#A85551"/><stop offset="1" stop-color="#BF873E"/></linearGradient><filter id="b" width="36" height="36" x="2" y="2" color-interpolation-filters="sRGB" filterUnits="userSpaceOnUse"><feFlood flood-opacity="0" result="BackgroundImageFix"/><feColorMatrix in="SourceAlpha" result="hardAlpha" values="0 0 0 0 0 0 0 0 0 0 0 0 0 0 0 0 0 0 127 0"/><feOffset/><feGaussianBlur stdDeviation="2"/><feComposite in2="hardAlpha" operator="out"/><feColorMatrix values="0 0 0 0 0 0 0 0 0 0 0 0 0 0 0 0 0 0 0.25 0"/><feBlend in2="BackgroundImageFix" result="effect1_dropShadow_1_68"/><feBlend in="SourceGraphic" in2="effect1_dropShadow_1_68" result="shape"/></filter></defs></svg>
